src/24/actions/zoom-in-x.svg

<svg xmlns="http://www.w3.org/2000/svg" viewBox="0 0 24 24">
  <defs id="defs3051">
    <style type="text/css" id="current-color-scheme">
      .ColorScheme-Text {
        color:#5d656b;
      }
      </style>
  </defs>
 <path style="fill:currentColor;fill-opacity:1;stroke:none" 
     d="M 5 5 L 5 7 L 6 7 L 6 6 L 7 6 L 7 5 L 5 5 z M 10 5 L 10 6 L 12 6 L 12 5 L 10 5 z M 18.171875 5.6699219 L 17.464844 6.3769531 L 19.085938 7.9980469 L 14.429688 7.9980469 L 14.429688 8.9980469 L 19.085938 8.9980469 L 17.464844 10.621094 L 18.171875 11.328125 L 20.292969 9.2050781 L 21 8.4980469 L 18.171875 5.6699219 z M 5 10 L 5 12 L 6 12 L 6 10 L 5 10 z M 20 14 L 20 16 L 21 16 L 21 14 L 20 14 z M 5 15 L 5 21 L 11 21 L 11 15 L 5 15 z M 6 16 L 10 16 L 10 20 L 6 20 L 6 16 z M 20 19 L 20 20 L 19 20 L 19 21 L 21 21 L 21 19 L 20 19 z M 14 20 L 14 21 L 16 21 L 16 20 L 14 20 z "
     class="ColorScheme-Text"
     />
</svg>

<svg xmlns="http://www.w3.org/2000/svg" viewBox="0 0 24 24"><path d="M5 5v2h1V6h1V5H5zm5 0v1h2V5h-2zm8.172.67l-.707.707 1.62 1.621H14.43v1h4.656l-1.621 1.623.707.707 2.121-2.123.707-.707-2.828-2.828zM5 10v2h1v-2H5zm15 4v2h1v-2h-1zM5 15v6h6v-6H5zm1 1h4v4H6v-4zm14 3v1h-1v1h2v-2h-1zm-6 1v1h2v-1h-2z" fill="currentColor" color="#5d656b"/></svg>
